X: 1
T: Reconciliation, The
M: 4/4
L: 1/8
R: reel
K: Amaj
|:A2cA eA fA|eA fA ec Bc|A2cA eA fA|ec Bc AF EF|
A2cA eA fA|eA fA ec Bc|AB AF Ec df|ec Bc A2 cB:|
|:A2ce a2af|ef ed cd cB|A2ce a2ag|fb ba gb eg|
ag ae fa ec|dB cA BA FG|AB AF Ec df|ec Bc A2 cB:|
